packages/foundations/assets/icons/functional/images/maps/map_14.svg

<svg width="14" height="14" viewBox="0 0 14 14" fill="none" xmlns="http://www.w3.org/2000/svg">
<g clip-path="url(#clip0_186_78)">
<path fill-rule="evenodd" clip-rule="evenodd" d="M5.31727 1.34615L9.10897 2.60256L11.6667 1.32375C11.7747 1.26969 11.891 1.25641 12.0705 1.25641C12.3846 1.25641 12.7436 1.50324 12.7436 1.86221V10.5897C12.7436 10.8366 12.6538 11.0609 12.4295 11.1731L9.49042 12.6762C9.40067 12.7212 9.28846 12.7436 9.17624 12.7436C9.0865 12.7436 8.95196 12.6987 8.81727 12.6762L4.89102 11.3526L2.28846 12.6762C2.19872 12.7212 2.0865 12.7436 1.99676 12.7436C1.59298 12.7436 1.25641 12.4968 1.25641 12.0256V3.38785C1.25641 3.16342 1.34615 2.89419 1.57051 2.78205L4.44231 1.34615C4.5859 1.27436 4.70077 1.26 4.79839 1.25713L4.86855 1.25641C4.98077 1.25641 5.068 1.26352 5.31727 1.34615ZM5.5641 2.93914V10.0737L8.4359 11.0385V3.90384L5.5641 2.93914ZM11.3077 3.11862L9.87179 3.83657V10.859L11.3077 10.141V3.11862ZM4.1282 3.11862L2.69231 3.83657V10.859L4.1282 10.141V3.11862Z" fill="#1A1C1F"/>
</g>
<defs>
<clipPath id="clip0_186_78">
<rect width="14" height="14" fill="white"/>
</clipPath>
</defs>
</svg>

<svg xmlns="http://www.w3.org/2000/svg" width="14" height="14" fill="none"><g clip-path="url(#a)"><path fill="#1A1C1F" fill-rule="evenodd" d="M5.317 1.346 9.11 2.603l2.558-1.28c.108-.053.224-.067.403-.067.315 0 .674.247.674.606v8.728c0 .247-.09.47-.314.583l-2.94 1.503a.7.7 0 0 1-.314.068c-.09 0-.224-.045-.359-.068l-3.926-1.323-2.603 1.323a.7.7 0 0 1-.291.068c-.404 0-.74-.247-.74-.718V3.388c0-.225.09-.494.314-.606l2.871-1.436a.8.8 0 0 1 .356-.089h.07c.113 0 .2.007.45.09m.247 1.593v7.135l2.872.965V3.904zm5.744.18-1.436.718v7.022l1.436-.718zm-7.18 0-1.436.718v7.022l1.436-.718z" clip-rule="evenodd"/></g><defs><clipPath id="a"><path fill="#fff" d="M0 0h14v14H0z"/></clipPath></defs></svg>
